X: 3
T: Hull's Reel
R: reel
M: 4/4
L: 1/8
K: Emaj
|:"E"BEEc B2 Bc | "E"BEEB "A"cBce | "E"BEEc B2 GB | "A"cBce "B"fefg |
"E"BEEc B2 Bc | "E"BEEB cBce | "F#m"fgfe cagf |1 "A"eccB ceec :|2 "A"eccB ceef |]
|: "E"gB (3BBB g2fe | "F#m"fc (3ccc c2 Bc | "A"fc (3ccc c2Bc | "E"eB (3BBB Bcef |
"C#m"gB (3BBB g2 fe | "F#m"fc (3ccc c2 ce | "A"fgfe cagf |1 "A"eccB ceef :|2 "A"eccB ceec |]
